package/mac.svg

<svg enable-background="new 0 0 800 800" height="1000" viewBox="0 0 1000 1000" width="1000" xmlns="http://www.w3.org/2000/svg" xmlns:xlink="http://www.w3.org/1999/xlink"><filter id="a" color-interpolation-filters="sRGB" height="1.650711" width="1.600711" x="-.275355" y="-.275355"><feFlood in="SourceGraphic" result="flood"/><feGaussianBlur in="SourceGraphic" result="blur" stdDeviation="2"/><feOffset dx="1" dy="2" in="blur" result="offset"/><feComposite in="flood" in2="offset" operator="in" result="comp1"/><feComposite in="comp1" in2="comp1" operator="atop" result="comp2"/></filter><filter id="b" color-interpolation-filters="sRGB" height="1.425" width="1.39375" x="-.18125" y="-.18125"><feFlood in="SourceGraphic" result="flood"/><feGaussianBlur in="SourceGraphic" result="blur" stdDeviation="2"/><feOffset dx="1" dy="2" in="blur" result="offset"/><feComposite in="flood" in2="offset" operator="in" result="comp1"/><feComposite in="comp1" in2="comp1" operator="atop" result="comp2"/></filter><filter id="c" color-interpolation-filters="sRGB" height="2.446024" width="2.334913" x="-.611901" y="-.611901"><feFlood in="SourceGraphic" result="flood"/><feGaussianBlur in="SourceGraphic" result="blur" stdDeviation="2"/><feOffset dx="1" dy="2" in="blur" result="offset"/><feComposite in="flood" in2="offset" operator="in" result="comp1"/><feComposite in="comp1" in2="comp1" operator="atop" result="comp2"/></filter><linearGradient id="d" gradientTransform="matrix(1 0 0 -1 100 898.7717)" gradientUnits="userSpaceOnUse" x1="400.04999" x2="400.04999" y1="798.77173" y2="-1.2283"><stop offset="0" stop-color="#4d4d4d"/><stop offset="1" stop-color="#1a1a1a"/></linearGradient><path d="m738.4 100h-476.8c-89.3 0-161.6 72.3-161.6 161.6v476.9c0 89.2 72.3 161.5 161.6 161.5h476.9c89.2 0 161.6-72.3 161.6-161.6v-476.8c-.1-89.3-72.4-161.6-161.7-161.6z" fill="url(#d)"/><g stroke-linejoin="round" stroke-width="2"><g fill="none" stroke="#000" transform="matrix(10.5 0 0 10.5 163.99962 163.99962)"><path d="m6 38 20 20z" filter="url(#a)"/><path d="m26 58h12l20-20v-12" filter="url(#b)" stroke-linecap="round"/><path d="m32 23-9 9z" filter="url(#c)"/></g><g fill="#000" stroke="#f9f9f9" transform="matrix(10.5 0 0 10.5 164 164)"><path d="m6 26h11l21-20h-12z"/><path d="m6 26v12l20 20v-11z"/><path d="m6 26h11l15 15-6 6z"/><path d="m26 58h12l20-20h-11z"/><path d="m58 38v-12l-20-20v11z"/><path d="m38 6v11l-15 15-6-6z"/><path d="m26 58v-11l15-15 6 6z"/><path d="m58 38h-11l-15-15 6-6z"/></g></g></svg>

<?xml version="1.0" encoding="UTF-8" standalone="no"?>
<!-- Generator: Adobe Illustrator 23.0.1, SVG Export Plug-In . SVG Version: 6.00 Build 0)  -->

<svg
   version="1.1"
   id="Capa_1"
   x="0px"
   y="0px"
   viewBox="0 0 1000 1000"
   enable-background="new 0 0 800 800"
   xml:space="preserve"
   sodipodi:docname="mac.svg"
   inkscape:version="1.4.3 (0d15f75, 2025-12-25)"
   width="1000"
   height="1000"
   xmlns:inkscape="http://www.inkscape.org/namespaces/inkscape"
   xmlns:sodipodi="http://sodipodi.sourceforge.net/DTD/sodipodi-0.dtd"
   xmlns="http://www.w3.org/2000/svg"
   xmlns:svg="http://www.w3.org/2000/svg"><defs
   id="defs3"><filter
     style="color-interpolation-filters:sRGB"
     inkscape:label="Drop Shadow"
     id="filter45"
     x="-0.27535534"
     y="-0.27535534"
     width="1.6007107"
     height="1.6507107"><feFlood
       result="flood"
       in="SourceGraphic"
       flood-opacity="1.000000"
       flood-color="rgb(0,0,0)"
       id="feFlood43" /><feGaussianBlur
       result="blur"
       in="SourceGraphic"
       stdDeviation="2.000000"
       id="feGaussianBlur43" /><feOffset
       result="offset"
       in="blur"
       dx="1.000000"
       dy="2.000000"
       id="feOffset43" /><feComposite
       result="comp1"
       operator="in"
       in="flood"
       in2="offset"
       id="feComposite44" /><feComposite
       result="comp2"
       operator="atop"
       in="comp1"
       in2="comp1"
       id="feComposite45" /></filter><filter
     style="color-interpolation-filters:sRGB"
     inkscape:label="Drop Shadow"
     id="filter43"
     x="-0.18125"
     y="-0.18125"
     width="1.39375"
     height="1.425"><feFlood
       result="flood"
       in="SourceGraphic"
       flood-opacity="1.000000"
       flood-color="rgb(0,0,0)"
       id="feFlood41" /><feGaussianBlur
       result="blur"
       in="SourceGraphic"
       stdDeviation="2.000000"
       id="feGaussianBlur41" /><feOffset
       result="offset"
       in="blur"
       dx="1.000000"
       dy="2.000000"
       id="feOffset41" /><feComposite
       result="comp1"
       operator="in"
       in="flood"
       in2="offset"
       id="feComposite42" /><feComposite
       result="comp2"
       operator="atop"
       in="comp1"
       in2="comp1"
       id="feComposite43" /></filter><filter
     style="color-interpolation-filters:sRGB"
     inkscape:label="Drop Shadow"
     id="filter41"
     x="-0.61190075"
     y="-0.61190075"
     width="2.3349126"
     height="2.4460237"><feFlood
       result="flood"
       in="SourceGraphic"
       flood-opacity="1.000000"
       flood-color="rgb(0,0,0)"
       id="feFlood40" /><feGaussianBlur
       result="blur"
       in="SourceGraphic"
       stdDeviation="2.000000"
       id="feGaussianBlur40" /><feOffset
       result="offset"
       in="blur"
       dx="1.000000"
       dy="2.000000"
       id="feOffset40" /><feComposite
       result="comp1"
       operator="in"
       in="flood"
       in2="offset"
       id="feComposite40" /><feComposite
       result="comp2"
       operator="atop"
       in="comp1"
       in2="comp1"
       id="feComposite41" /></filter></defs><sodipodi:namedview
   id="namedview3"
   pagecolor="#ffffff"
   bordercolor="#000000"
   borderopacity="0.25"
   inkscape:showpageshadow="2"
   inkscape:pageopacity="0.0"
   inkscape:pagecheckerboard="0"
   inkscape:deskcolor="#d1d1d1"
   inkscape:zoom="0.45498309"
   inkscape:cx="237.37146"
   inkscape:cy="457.15984"
   inkscape:window-width="1728"
   inkscape:window-height="1051"
   inkscape:window-x="0"
   inkscape:window-y="38"
   inkscape:window-maximized="1"
   inkscape:current-layer="Capa_1" />
<linearGradient
   id="SVGID_1_"
   gradientUnits="userSpaceOnUse"
   x1="400.04999"
   y1="798.77173"
   x2="400.04999"
   y2="-1.2283"
   gradientTransform="matrix(1,0,0,-1,100,898.7717)">
	<stop
   offset="0"
   style="stop-color:#4d4d4d;stop-opacity:1"
   id="stop1" />
	<stop
   offset="1"
   style="stop-color:#1a1a1a;stop-opacity:1"
   id="stop2" />
</linearGradient>
<path
   fill="url(#SVGID_1_)"
   d="M 738.4,100 H 261.6 C 172.3,100 100,172.3 100,261.6 v 476.9 c 0,89.2 72.3,161.5 161.6,161.5 h 476.9 c 89.2,0 161.6,-72.3 161.6,-161.6 V 261.6 C 900,172.3 827.7,100 738.4,100 Z"
   id="path2"
   inkscape:label="background"
   style="fill:url(#SVGID_1_)" /><g
   id="g2-8"
   inkscape:label="shadow"
   style="display:inline"
   transform="matrix(10.5,0,0,10.5,163.99962,163.99962)"><path
     style="display:inline;fill:none;fill-opacity:1;stroke:#000000;stroke-width:2;stroke-linecap:butt;stroke-linejoin:round;stroke-dasharray:none;stroke-dashoffset:0;stroke-opacity:1;filter:url(#filter45)"
     d="M 6,38 26,58 Z"
     id="path21-6"
     sodipodi:nodetypes="ccc" /><path
     style="display:inline;fill:none;fill-opacity:1;stroke:#000000;stroke-width:2;stroke-linecap:round;stroke-linejoin:round;stroke-dasharray:none;stroke-dashoffset:0;stroke-opacity:1;filter:url(#filter43)"
     d="M 26,58 H 38 L 58,38 V 26"
     id="path24-1"
     sodipodi:nodetypes="ccc" /><path
     style="fill:none;fill-opacity:1;stroke:#000000;stroke-width:2;stroke-linecap:butt;stroke-linejoin:round;stroke-dasharray:none;stroke-dashoffset:0;stroke-opacity:1;filter:url(#filter41)"
     d="m 32,23 -9,9 z"
     id="path20-2"
     sodipodi:nodetypes="ccc" /></g><g
   id="g2"
   style="display:inline;fill:#1a1a1a;stroke:#f9f9f9"
   transform="matrix(10.5,0,0,10.5,164,164)"
   inkscape:label="logo"><path
     style="fill:#000000;fill-opacity:1;stroke:#f9f9f9;stroke-width:2;stroke-linecap:butt;stroke-linejoin:round;stroke-dasharray:none;stroke-dashoffset:0;stroke-opacity:1"
     d="M 6,26 H 17 L 38,6 H 26 Z"
     id="path19"
     sodipodi:nodetypes="ccccc" /><path
     style="fill:#000000;fill-opacity:1;stroke:#f9f9f9;stroke-width:2;stroke-linecap:butt;stroke-linejoin:round;stroke-dasharray:none;stroke-dashoffset:0;stroke-opacity:1"
     d="M 6,26 V 38 L 26,58 V 47 Z"
     id="path21"
     sodipodi:nodetypes="ccccc" /><path
     style="fill:#000000;fill-opacity:1;stroke:#f9f9f9;stroke-width:2;stroke-linecap:butt;stroke-linejoin:round;stroke-dasharray:none;stroke-dashoffset:0;stroke-opacity:1"
     d="m 6,26 h 11 l 15,15 -6,6 z"
     id="path22"
     sodipodi:nodetypes="ccccc" /><path
     style="fill:#000000;fill-opacity:1;stroke:#f9f9f9;stroke-width:2;stroke-linecap:butt;stroke-linejoin:round;stroke-dasharray:none;stroke-dashoffset:0;stroke-opacity:1"
     d="M 26,58 H 38 L 58,38 H 47 Z"
     id="path24"
     sodipodi:nodetypes="ccccc" /><path
     style="fill:#000000;fill-opacity:1;stroke:#f9f9f9;stroke-width:2;stroke-linecap:butt;stroke-linejoin:round;stroke-dasharray:none;stroke-dashoffset:0;stroke-opacity:1"
     d="M 58,38 V 26 L 38,6 v 11 z"
     id="path25"
     sodipodi:nodetypes="ccccc" /><path
     style="fill:#000000;fill-opacity:1;stroke:#f9f9f9;stroke-width:2;stroke-linecap:butt;stroke-linejoin:round;stroke-dasharray:none;stroke-dashoffset:0;stroke-opacity:1"
     d="M 38,6 V 17 L 23,32 17,26 Z"
     id="path20"
     sodipodi:nodetypes="ccccc" /><path
     style="fill:#000000;fill-opacity:1;stroke:#f9f9f9;stroke-width:2;stroke-linecap:butt;stroke-linejoin:round;stroke-dasharray:none;stroke-dashoffset:0;stroke-opacity:1"
     d="M 26,58 V 47 l 15,-15 6,6 z"
     id="path23"
     sodipodi:nodetypes="ccccc" /><path
     style="fill:#000000;fill-opacity:1;stroke:#f9f9f9;stroke-width:2;stroke-linecap:butt;stroke-linejoin:round;stroke-dasharray:none;stroke-dashoffset:0;stroke-opacity:1"
     d="M 58,38 H 47 L 32,23 38,17 Z"
     id="path26"
     sodipodi:nodetypes="ccccc" /></g>

</svg>
